!!!!SEGMENT: pl-kk--kk-i-542--002_anonim--piesn-na-czesc-sw-kazimierza-kwiecie-slynnego-szczepu-jagiellonow.krn
!!!cenid: 18xx:4498
!!!COM: Anonim
!!!COM-rismID: pe30004985
!!!CDT:
!!!CNT:
!!!OTL: Pieśń na Cześć Św. Kazimierza/Kwiecie słynnego szczepu Jagiellonów
!!!PDT:
!!!AGN: Sacred
!!!YEC: Copyright 2022 Narodowy Instytut Fryderyka Chopina (https://polishscores.org)
!!!YEM: License CC-BY-4.0 (https://creativecommons.org/licenses/by/4.0)
!!!SMS-siglum: PL-Kk
!!!SMS-shelfmark: Kk.I.542
!!!SMS-variant:
!!!SMS-altvar:
!!!SMS-shelfwork: 002 W
!!!NIFC-rismSourceID: 1001210825
!!!NIFC-rismChildID: 1001210827
!!!NIFC-islandoraID: pl-kk:16982
!!!URL-pdf-islandora: https://repozytorium.nifc.pl/islandora/object/pl-kk%3A16982/datastream/PDF/view
!!!URL-scan: https://polish.musicsources.pl/pl/lokalizacje/galeria/rekopisy/7169/2 @EN{Scan on Polish Music Sources Website} @PL{Skany w portalu Dziedzictwo Muzyki Polskiej w otwartym dostępie}
!!!IIIF:
!!!ONB-nifc:
!!!AIN: 1 bass
!!!key:
**kern	**text	**text
*I"Basſo	*	*
*I'B	*	*
*Ibass	*	*
*ICvox	*	*
*clefF4	*	*
*k[b-]	*	*
*f:	*	*
*M4/4	*	*
*met(c)	*	*
=1	=1	=1
4F\	Kwie-	Ta
8F\	-cie	Pol-
8F\	słyn-	-ska
4D\	-ne-	zie-
4F\	-go	-mia
=2	=2	=2
8C\	szcze-	Nie-
8D\	-pu	-ba
8E\	Ja-	cię
8F\	-gie-	wy-
4C/	-lo-	-da-
4C/	-nów	-ła
=3	=3	=3
4C/	Chlu-	Wi-
8C/	-bo	-li-
8C/	Sar-	-a
4C/	-mac-	zwie-
4C/	-Kiej	-ła
!LO:LB:g=original	!	!
=4	=4	=4
8C/	i	i-
8C/	oz-	-mie
8C/	-do-	Twe
8C/	-bo	wzpo-
4F\	zie-	-mi-
4F\	-mi	-na
=5	=5	=5
4F\	Co	Tu
8F\	nad	na
8F\	gwiaz-	Wa-
4E\	-da-	-we-
4B-\	-mi	-lu
=6	=6	=6
8A\	wcho-	Twa
8A\	-rze	Ko-
8.F\	jej	-leb-
16A\	Pat-	-Ka
4B-\	-ro-	sta-
4B-\	-nów	-ła
!LO:LB:g=original	!	!
=7	=7	=7
4B-\	Czu-	Szcząt-
8B-\	-wasz	-Ków
8B-\	o-	gród
4.c\	-patrz-	strze-
8C/	-nie	-że
=8	=8	=8
8C/	nad	sta-
8C/	lo-	-ry
8C/	-sy	Ge-
8C/	na-	-dy-
4C#X/	-sze-	-mi-
4D/	-mi	-na
=9	=9	=9
4G\	Dwa	Dwa
8G\	lu-	lu-
8G\	-dy	-dy
4F\	Któ-	Któ-
4F\	-re	-rych
!LO:LB:g=original	!	!
=10!|:	=10!|:	=10!|:
8E\	wia-	nie
8E\	-ra	o-
8C#X/	mi-	-ręż
8C#/	-łość	nie
4D/	dzie-	si-
8D/	-je	-ła
8r	.	.
=11	=11	=11
4G\	W je-	Lecz
8F\	-den	mi-
8F\	lud	-łość
4E\	zla-	Two-
4E\	-ły	-ich
=12	=12	=12
8BBn/	i	przod-
8BB/	w je-	-Ków
8D/	-dne	po-
8F\	na-	-łą-
4E\	-dzie-	-czy-
4E\	-je	-ła
!LO:LB:g=original	!	!
=13	=13	=13
4A\	Kor-	Cześć
8A\	-ną	mi-
8A\	cześć	-łość
4B-\	wio-	brze-
4B-\	-dły	-mią
=14	=14	=14
8F#X\	nio-	nio-
8F#\	-są	-są
8F#\	ci	ci
8F#\	w przy-	w przy-
4G\	-mie-	-mie-
4G\	-rzu	-rzu
!LO:LB:g=original	!	!
=15	=15	=15
4B-X\	Modl	.
8B-\	sie	.
8B-\	za	.
4c\	na-	.
4c\	-mi	.
=16	=16	=16
8c\	Świę-	.
8c\	-ty	.
8C/	Ka-	.
8C/	-zi-	.
4F\	-mie-	.
8F\	-rzu	.
8r	.	.
=:|!	=:|!	=:|!
*-	*-	*-
!!!ENC: Filip Voros
!!!END: 2023-11-10
!!!ENC: Leszek Kubiak
!!!END: 2024-08-05
